dist/media/images/favicon.svg

<svg width="55" height="55" viewBox="0 0 55 55" fill="none" xmlns="http://www.w3.org/2000/svg" xmlns:xlink="http://www.w3.org/1999/xlink">
<mask id="mask0_78_1176" style="mask-type:alpha" maskUnits="userSpaceOnUse" x="0" y="0" width="55" height="55">
<rect width="55" height="55" fill="url(#pattern0)"/>
</mask>
<g mask="url(#mask0_78_1176)">
<rect x="-7.85645" y="-6.54614" width="69.4048" height="72.0238" fill="#FF5520"/>
</g>
<path d="M3.36426 20.3916V22.9389C4.13396 22.9389 3.91282 22.9298 4.68252 22.9298C5.13151 22.9298 5.26896 23.0581 5.24147 23.4979C5.20482 24.0568 5.23231 24.625 5.23231 25.1931C5.23231 26.1369 5.23231 27.0807 5.23231 28.0978C6.00201 28.0978 6.68924 28.1161 7.36731 28.0886C7.77049 28.0703 7.89877 28.2077 7.88044 28.6109C7.85296 29.2615 7.87128 29.9121 7.87128 30.6176C8.67763 30.6176 9.41985 30.6451 10.1621 30.6085C10.611 30.5901 10.7943 30.7001 10.7577 31.1857C10.7118 31.8546 10.7485 32.5235 10.7485 33.2199H20.3423C20.3423 32.4777 20.3606 31.763 20.3331 31.0483C20.3239 30.7001 20.4431 30.5993 20.7821 30.6085C21.4143 30.6359 22.0558 30.6176 22.7338 30.6176C22.7338 29.9029 22.7613 29.2523 22.7247 28.6017C22.6972 28.1802 22.8621 28.0794 23.247 28.0978C23.8701 28.1253 24.5023 28.0886 25.1254 28.1161C25.5286 28.1344 25.6843 28.0245 25.6752 27.5846C25.6477 26.1827 25.6752 24.7716 25.6569 23.3696C25.6569 23.0581 25.7485 22.9389 26.0692 22.9481C26.7748 22.9664 27.4712 22.9664 28.1767 22.9481C28.5249 22.9389 28.6165 23.0672 28.6165 23.3971C28.5982 24.7257 28.6074 26.0544 28.6074 27.383C28.6074 27.603 28.6074 27.832 28.6074 28.0978C29.3588 28.0978 30.0368 28.1161 30.7241 28.0886C31.1456 28.0703 31.283 28.2169 31.2647 28.6384C31.2372 29.289 31.2555 29.9396 31.2555 30.6451H34.1419V33.2108H43.7082C43.7082 32.4594 43.7265 31.763 43.699 31.0575C43.6898 30.7093 43.809 30.6085 44.148 30.6176C44.7803 30.6359 45.4217 30.6268 46.1181 30.6268C46.1181 29.9029 46.1364 29.234 46.1089 28.5651C46.0906 28.1986 46.228 28.0886 46.5854 28.0978C47.2543 28.1161 47.9324 28.0886 48.6013 28.1069C48.9678 28.1161 49.0686 27.9878 49.0594 27.6305C49.0411 26.256 49.0503 24.8815 49.0503 23.5071C49.0503 23.333 49.0319 23.1497 49.0503 22.9389H51.6159V20.3916H3.36426ZM14.991 28.785C14.991 29.0324 14.9269 29.1515 14.6611 29.1424C13.8365 29.1332 13.0118 29.124 12.1871 29.1424C11.8664 29.1515 11.8023 29.0049 11.8114 28.73C11.8206 27.9328 11.8023 27.1448 11.8206 26.3476C11.8297 26.0269 11.7289 25.917 11.4082 25.9261C10.6477 25.9444 9.878 25.917 9.11746 25.9353C8.80592 25.9444 8.6868 25.8345 8.69596 25.5138C8.71429 24.7074 8.71429 23.8919 8.69596 23.0856C8.6868 22.7557 8.77843 22.6182 9.13579 22.6274C9.91465 22.6457 10.6935 22.6549 11.4724 22.6366C11.8023 22.6274 11.8939 22.7557 11.8847 23.0672C11.8664 23.9835 11.8756 24.8907 11.8756 25.862C12.8377 25.862 13.699 25.8711 14.5695 25.8528C14.8811 25.8436 15.0002 25.9444 15.0002 26.2651C14.9727 27.099 14.9818 27.942 14.991 28.785ZM38.476 28.7025H35.3697V25.5138C34.3343 25.5138 33.3081 25.5138 32.2451 25.5138V22.2609H35.3972V25.4863H38.476V28.7025Z" fill="#CBC9C9"/>
<path d="M11.8659 25.8527C12.828 25.8527 13.6893 25.8618 14.5598 25.8435C14.8714 25.8344 14.9905 25.9351 14.9905 26.2559C14.9722 27.0989 14.9813 27.9327 14.9905 28.7757C14.9905 29.0231 14.9263 29.1422 14.6606 29.1331C13.8359 29.1239 13.0113 29.1147 12.1866 29.1331C11.8659 29.1422 11.8017 28.9956 11.8109 28.7207C11.8201 27.9235 11.8017 27.1355 11.8201 26.3383C11.8292 26.0176 11.7284 25.9077 11.4077 25.9168C10.6472 25.9351 9.87747 25.9077 9.11694 25.926C8.80539 25.9351 8.68627 25.8252 8.69543 25.5045C8.71376 24.6981 8.71376 23.8826 8.69543 23.0763C8.68627 22.7464 8.7779 22.6089 9.13526 22.6181C9.91413 22.6364 10.693 22.6456 11.4719 22.6273C11.8017 22.6181 11.8934 22.7464 11.8842 23.0579C11.8567 23.9742 11.8659 24.8906 11.8659 25.8527Z" fill="#FF5520"/>
<path d="M35.3692 25.5138C34.3338 25.5138 33.3075 25.5138 32.2446 25.5138C32.2446 24.4142 32.2446 23.3604 32.2446 22.27C33.2984 22.27 34.3247 22.27 35.3967 22.27C35.3967 23.3696 35.3967 24.4325 35.3967 25.4954L35.3692 25.5138Z" fill="#FF5520"/>
<path d="M35.3971 25.4863C36.4142 25.4863 37.4313 25.4863 38.4759 25.4863C38.4759 26.5676 38.4759 27.6213 38.4759 28.7026C37.4313 28.7026 36.4234 28.7026 35.3696 28.7026C35.3696 27.6305 35.3696 26.5676 35.3696 25.5138C35.3696 25.5138 35.3971 25.4863 35.3971 25.4863Z" fill="#FF5520"/>
<defs>
<pattern id="pattern0" patternContentUnits="objectBoundingBox" width="1" height="1">
<use xlink:href="#image0_78_1176" transform="scale(0.0416667)"/>
</pattern>
<image id="image0_78_1176" width="24" height="24" xlink:href="data:image/png;base64,iVBORw0KGgoAAAANSUhEUgAAABgAAAAYCAYAAADgdz34AAAABmJLR0QA/wD/AP+gvaeTAAAAeUlEQVRIie2VSwrAMAhETen9r2xXQil2JqaMpdC3C2J0/CRmYsbl7MDGSH23akZVdmCLjJgSR8ZXFQQwQ4ZcgTxANPBRGdD93y8RCzAM7wGz/03mzGxygF7eW9p6ELCsZnvW9x+0j+m5ZNXRzXz1Y5rhtrZ4qZ9cwQFEPBEs2iilzgAAAABJRU5ErkJggg=="/>
</defs>
</svg>

<svg width="55" height="55" fill="none" xmlns="http://www.w3.org/2000/svg" xmlns:xlink="http://www.w3.org/1999/xlink"><mask id="a" style="mask-type:alpha" maskUnits="userSpaceOnUse" x="0" y="0" width="55" height="55"><path fill="url(#pattern0)" d="M0 0h55v55H0z"/></mask><g mask="url(#a)"><path fill="#FF5520" d="M-7.856-6.546h69.405v72.024H-7.856z"/></g><path d="M3.364 20.392v2.547c.77 0 .549-.01 1.319-.01.449 0 .586.13.558.569-.036.559-.009 1.127-.009 1.695v2.905c.77 0 1.457.018 2.135-.01.403-.018.532.12.513.523-.027.65-.009 1.301-.009 2.007.807 0 1.549.027 2.291-.01.449-.018.632.092.596.578-.046.669-.01 1.337-.01 2.034h9.594c0-.742.019-1.457-.009-2.172-.01-.348.11-.449.45-.44.631.028 1.273.01 1.95.01 0-.715.028-1.366-.008-2.016-.028-.422.137-.523.522-.504.623.027 1.255-.01 1.878.018.404.018.56-.091.55-.531-.027-1.402 0-2.813-.018-4.215 0-.312.091-.431.412-.422.706.018 1.402.018 2.108 0 .348-.01.44.12.44.45-.019 1.328-.01 2.656-.01 3.985v.715c.752 0 1.43.018 2.117-.01.422-.018.559.129.54.55-.027.651-.008 1.302-.008 2.007h2.886v2.566h9.566c0-.752.019-1.448-.009-2.153-.01-.349.11-.45.449-.44.632.018 1.274.009 1.97.009 0-.724.018-1.393-.01-2.062-.017-.366.12-.476.477-.467.67.018 1.347-.01 2.016.009.367.01.468-.12.458-.476-.018-1.375-.009-2.75-.009-4.124 0-.174-.018-.357 0-.568h2.566v-2.547H3.364zm11.627 8.393c0 .247-.064.366-.33.357-.825-.009-1.65-.018-2.474 0-.32.01-.385-.137-.376-.412.01-.797-.009-1.585.01-2.382.009-.321-.092-.431-.413-.422-.76.018-1.53-.009-2.29.01-.312.008-.431-.102-.422-.422.018-.807.018-1.622 0-2.428-.01-.33.082-.468.44-.459.779.019 1.558.028 2.336.01.33-.01.422.119.413.43-.019.916-.01 1.824-.01 2.795.963 0 1.824.01 2.694-.01.312-.008.431.092.431.413a57.63 57.63 0 00-.009 2.52zm23.485-.082H35.37v-3.19h-3.125v-3.252h3.152v3.225h3.079v3.216z" fill="#CBC9C9"/><path d="M11.866 25.853c.962 0 1.823.009 2.694-.01.311-.009.43.092.43.413-.018.843-.009 1.677 0 2.52 0 .247-.064.366-.33.357a72.812 72.812 0 00-2.473 0c-.321.01-.385-.137-.376-.412.01-.797-.01-1.585.01-2.383.008-.32-.093-.43-.413-.421-.76.018-1.53-.01-2.291.009-.312.01-.43-.1-.422-.421.019-.807.019-1.622 0-2.429-.009-.33.083-.467.44-.458.78.018 1.558.028 2.337.01.33-.01.421.118.412.43-.027.916-.018 1.833-.018 2.795zm23.504-.339h-3.125V22.27h3.152v3.225l-.028.019z" fill="#FF5520"/><path d="M35.397 25.486h3.079v3.217H35.37v-3.19l.027-.027z" fill="#FF5520"/><defs><pattern id="pattern0" patternContentUnits="objectBoundingBox" width="1" height="1"><use xlink:href="#image0_78_1176" transform="scale(.04167)"/></pattern><image id="image0_78_1176" width="24" height="24" xlink:href="data:image/png;base64,iVBORw0KGgoAAAANSUhEUgAAABgAAAAYCAYAAADgdz34AAAABmJLR0QA/wD/AP+gvaeTAAAAeUlEQVRIie2VSwrAMAhETen9r2xXQil2JqaMpdC3C2J0/CRmYsbl7MDGSH23akZVdmCLjJgSR8ZXFQQwQ4ZcgTxANPBRGdD93y8RCzAM7wGz/03mzGxygF7eW9p6ELCsZnvW9x+0j+m5ZNXRzXz1Y5rhtrZ4qZ9cwQFEPBEs2iilzgAAAABJRU5ErkJggg=="/></defs></svg>
